X: 11085
T: Duck, The
R: jig
M: 6/8
K: Dmajor
|:A2d def|e2d def|e2d def|e2d eff|
A2d def|e2d def|e2d fed|B2A Bcd:|
|:A2a f2e|fdd d2e|fdd d2e|fdd faa|A2a f2e|
fdd d2e|1 f2e fed|B2A Bcd:|2 faf fed|B2A Bcd||

